X: 1
T: Machar  [Em]
M:4/4
L:1/8
S:Deborah Jones/Vancouver IFD 1982
Z:Seymour.Shlien:crc.doc.ca
P: in Em:
K: Em
"Intro:"\
| "Em" G2 G>F GE FG | "D" A2 D2 DD EF | "C" G2 FE- EE ^DE | "B7" F6 "B7" B,2 ||
|: "Em" E4- EF GB | "Am" A>G FE "D" F2 D2 | "C" EE EE D2 E2 | "B7" F6 B,2 |
| "Em" E4- EF GB | "Am" A>G FE "D" F2 D2 | "C" EE EE "D7" D2 A2 | "G" G8 ||
|| "E7" B2 B>B B^G AB | "Am" c2 E2 E2 FG | "D7" A3 G FD GA | "G" B4- "B7"B4 |
| "Em" G2 G>G GE FG | "D" A2 D2 DD EF | "C" G2 FE- EE ^DE | "B7"F8 :|

%%sep 1 1 500

